X: 108
%
U:~=!turn!
T: Clydesdale Lasses
C:
O:Scotland
B:Keith Norman MacDonald : "The Skye collection of the best reels & strathspeys extant" : 1887
Z:Ralph Palmer
R:Reel
M:C|
L:1/8
K:F
c !segno!|: (AF)cF dFcF | (AF)cF ABcB | (AF)cF dFcA | (BA){/^F}GA xxx"2nd"e & xxxx BcdB :| T(fg)ag Tf2 (cf) | {/a}gfga baga |
T(fg)ag TfcAc | T(BA){/^F}GA Bcde | T(fg)ag Tf2 (cf) | Tgfga baga | fgag gefc | T(BA){/^F}GA BcdB !segno!|]


